assets/img/icons/pay-qr.svg

<svg width="24" height="24" viewBox="0 0 24 24" fill="none" xmlns="http://www.w3.org/2000/svg">
<g clip-path="url(#clip0_364_1325)">
<path d="M1.99111 1.18325C1.72197 1.2645 1.48389 1.44731 1.33896 1.68091L1.19922 1.91958V6.03286V10.1461L1.32861 10.3747C1.40107 10.4965 1.56152 10.6692 1.68057 10.7555L1.9083 10.9079L6.0541 10.9231C8.97842 10.9333 10.262 10.9231 10.4018 10.8825C10.5104 10.852 10.6916 10.7454 10.8003 10.6489C11.1833 10.3086 11.1678 10.5321 11.1522 5.94653L11.1367 1.85356L10.9814 1.63013C10.8935 1.51333 10.7175 1.35591 10.5933 1.28481L10.3604 1.15786L6.2456 1.14771C3.98379 1.14263 2.06875 1.15786 1.99111 1.18325ZM7.02715 4.48911C7.29629 4.57036 7.58613 4.81411 7.7 5.06294C7.77764 5.2356 7.79834 5.39809 7.79834 6.03286C7.79834 6.87583 7.74658 7.07388 7.45674 7.33794C7.18242 7.59184 6.99092 7.63247 6.15762 7.63247C5.27773 7.63247 5.08105 7.57661 4.81191 7.25161C4.57383 6.97231 4.52725 6.72856 4.54795 5.92622C4.56348 5.26606 4.57383 5.20513 4.70322 4.98169C4.84814 4.7481 5.08623 4.56528 5.35537 4.48403C5.56758 4.41802 6.80459 4.4231 7.02715 4.48911Z" fill="white"/>
<path d="M14.1031 1.20356C13.8081 1.30513 13.6632 1.41684 13.5027 1.65044L13.363 1.86372L13.3474 5.95161C13.3319 10.527 13.3164 10.3086 13.6994 10.6489C13.8081 10.7454 13.9892 10.852 14.0979 10.8825C14.2377 10.9231 15.5213 10.9333 18.4456 10.9231L22.5914 10.9079L22.8191 10.7555C22.9382 10.6692 23.0986 10.4965 23.1711 10.3747L23.3005 10.1461V6.03286V1.91958L23.1555 1.68091C23.0624 1.52349 22.9278 1.39145 22.7674 1.30005L22.5241 1.15786L18.4094 1.1477C15.0658 1.13755 14.2584 1.1477 14.1031 1.20356ZM19.4031 4.60083C19.5636 4.69223 19.6981 4.82427 19.7913 4.98169C19.9259 5.20513 19.9362 5.26098 19.9517 5.92622C19.9724 6.72856 19.9259 6.97231 19.6878 7.25161C19.4186 7.57661 19.2219 7.63247 18.3421 7.63247C17.5088 7.63247 17.3173 7.59184 17.0429 7.33794C16.7531 7.07388 16.7013 6.87583 16.7013 6.03286C16.7013 5.15942 16.7635 4.9563 17.0844 4.70747C17.3949 4.46372 17.5398 4.43325 18.3835 4.44849C19.1288 4.45864 19.1702 4.46372 19.4031 4.60083Z" fill="white"/>
<path d="M1.89795 13.1223C1.67021 13.2137 1.43213 13.4219 1.31309 13.6402L1.19922 13.8535V17.9668V22.0801L1.34414 22.3188C1.4373 22.4762 1.57188 22.6082 1.73232 22.6996L1.97559 22.8418H6.16797H10.3604L10.5933 22.7148C10.7175 22.6438 10.8935 22.4863 10.9814 22.3695L11.1367 22.1461L11.1522 18.0785C11.1626 15.2348 11.1522 13.95 11.1108 13.8129C11.0384 13.5641 10.7744 13.2746 10.5156 13.1629C10.3189 13.0766 10.0653 13.0664 6.16797 13.0715C3.5749 13.0715 1.98076 13.0918 1.89795 13.1223ZM7.15137 16.4637C7.26523 16.5145 7.42051 16.6211 7.49814 16.7023C7.75693 16.9715 7.79834 17.1594 7.79834 17.977C7.79834 18.8402 7.74141 19.0332 7.41016 19.2973C7.12549 19.5309 6.87705 19.5766 6.05928 19.5563C5.38125 19.541 5.32432 19.5309 5.09658 19.3988C4.93613 19.3074 4.80156 19.1754 4.7084 19.018C4.57383 18.7945 4.56348 18.7387 4.54795 18.0734C4.52725 17.2711 4.57383 17.0273 4.81191 16.748C5.08105 16.423 5.27773 16.3672 6.16797 16.3672C6.81494 16.3672 6.98057 16.3875 7.15137 16.4637Z" fill="white"/>
<path d="M13.9834 13.1578C13.7246 13.2746 13.4606 13.5641 13.3881 13.8129C13.3519 13.9348 13.3364 14.3156 13.3467 14.8285L13.3623 15.6461L13.5175 15.8695C13.6055 15.9914 13.7815 16.1437 13.9057 16.2148C14.1179 16.3316 14.2059 16.3418 14.8529 16.357L15.562 16.3773V17.591C15.562 18.957 15.5827 19.0535 15.9502 19.3531C16.2193 19.5715 16.447 19.6172 17.2182 19.6172C17.9894 19.6172 18.2171 19.5715 18.4863 19.3531C18.8641 19.0484 18.8745 18.9824 18.8745 17.393V15.9711L18.7088 15.7273C18.6157 15.5902 18.4449 15.4277 18.331 15.3668C18.1447 15.2652 18.0515 15.25 17.4149 15.25H16.711L16.6903 14.5492C16.6748 13.9195 16.6644 13.8332 16.5454 13.625C16.4729 13.5031 16.3176 13.3305 16.1934 13.2441L15.9657 13.0918L15.0806 13.0766C14.3043 13.0664 14.1645 13.0766 13.9834 13.1578Z" fill="white"/>
<path d="M19.4591 13.1934C19.2935 13.2746 19.1382 13.4016 19.0502 13.5336C18.9001 13.7418 18.9001 13.7469 18.8846 14.6457C18.8639 15.6664 18.9053 15.8086 19.2624 16.1031C19.5316 16.3215 19.7593 16.3672 20.5305 16.3672C21.3017 16.3672 21.5294 16.3215 21.7985 16.1031C22.1557 15.8086 22.1971 15.6664 22.1764 14.6457C22.1608 13.7469 22.1608 13.7418 22.0108 13.5336C21.9228 13.4016 21.7675 13.2746 21.6019 13.1934C21.3534 13.0715 21.2913 13.0664 20.5305 13.0664C19.7696 13.0664 19.7075 13.0715 19.4591 13.1934Z" fill="white"/>
<path d="M13.9834 19.6578C13.7246 19.7746 13.4606 20.0641 13.3881 20.3129C13.3519 20.4348 13.3364 20.8156 13.3467 21.3285L13.3623 22.1461L13.5175 22.3695C13.6055 22.4914 13.7815 22.6438 13.9057 22.7148C14.1283 22.8367 14.1749 22.8418 15.0185 22.8418C15.976 22.8418 16.0588 22.8215 16.359 22.532C16.6541 22.2375 16.6748 22.1562 16.6748 21.2168C16.6748 20.3891 16.6696 20.3434 16.5454 20.125C16.4729 20.0031 16.3176 19.8305 16.1934 19.7441L15.9657 19.5918L15.0806 19.5766C14.3043 19.5664 14.1645 19.5766 13.9834 19.6578Z" fill="white"/>
<path d="M19.4591 19.6934C19.2935 19.7746 19.1382 19.9016 19.0502 20.0336C18.9001 20.2418 18.9001 20.2469 18.8846 21.1457C18.8639 22.1664 18.9053 22.3086 19.2624 22.6031C19.5316 22.8215 19.7593 22.8672 20.5305 22.8672C21.3017 22.8672 21.5294 22.8215 21.7985 22.6031C22.1557 22.3086 22.1971 22.1664 22.1764 21.1457C22.1608 20.2469 22.1608 20.2418 22.0108 20.0336C21.9228 19.9016 21.7675 19.7746 21.6019 19.6934C21.3534 19.5715 21.2913 19.5664 20.5305 19.5664C19.7696 19.5664 19.7075 19.5715 19.4591 19.6934Z" fill="white"/>
</g>
<defs>
<clipPath id="clip0_364_1325">
<rect width="24" height="24" fill="white"/>
</clipPath>
</defs>
</svg>

<svg width="24" height="24" fill="none" xmlns="http://www.w3.org/2000/svg"><g clip-path="url(#a)" fill="#fff"><path d="M1.991 1.183a1.177 1.177 0 0 0-.652.498l-.14.239v8.226l.13.229c.072.121.233.294.352.38l.227.153 4.146.015c2.924.01 4.208 0 4.348-.04.108-.031.29-.138.398-.234.383-.34.368-.117.352-4.702l-.015-4.093-.156-.224a1.555 1.555 0 0 0-.388-.345l-.233-.127-4.114-.01c-2.262-.005-4.177.01-4.255.035ZM7.027 4.49c.27.081.56.325.673.574.078.173.098.335.098.97 0 .843-.051 1.04-.341 1.305-.275.254-.466.294-1.3.294-.88 0-1.076-.055-1.345-.38-.238-.28-.285-.523-.264-1.326.015-.66.026-.72.155-.944.145-.234.383-.417.652-.498.213-.066 1.45-.06 1.672.005Zm7.076-3.286c-.295.101-.44.213-.6.446l-.14.214-.016 4.088c-.015 4.575-.03 4.357.352 4.697.11.096.29.203.399.234.14.04 1.423.05 4.348.04l4.145-.015.228-.152c.12-.087.28-.26.352-.381l.13-.229V1.92l-.145-.24a1.063 1.063 0 0 0-.389-.38l-.243-.142-4.115-.01c-3.343-.01-4.15 0-4.306.056Zm5.3 3.397c.16.091.295.223.388.38.135.224.145.28.16.945.021.803-.025 1.046-.263 1.326-.27.325-.466.38-1.346.38-.833 0-1.025-.04-1.3-.294-.289-.264-.34-.462-.34-1.305 0-.874.061-1.077.382-1.326.31-.243.456-.274 1.3-.259.745.01.786.016 1.02.153ZM1.898 13.122c-.228.092-.466.3-.585.518l-.114.213v8.227l.145.239c.093.157.228.29.388.38l.244.143h8.384l.233-.127c.124-.071.3-.229.388-.346l.156-.223.015-4.068c.01-2.843 0-4.128-.041-4.265-.073-.249-.337-.538-.595-.65-.197-.086-.45-.097-4.348-.091-2.593 0-4.187.02-4.27.05Zm5.253 3.342c.114.05.27.157.347.238.259.27.3.457.3 1.275 0 .863-.057 1.056-.388 1.32-.285.234-.533.28-1.35.26-.679-.016-.736-.026-.963-.158a1.064 1.064 0 0 1-.389-.381c-.134-.224-.145-.28-.16-.945-.02-.802.026-1.046.264-1.325.269-.325.466-.38 1.356-.38.647 0 .813.02.983.096Zm6.832-3.306c-.258.117-.522.406-.595.655-.036.122-.052.503-.041 1.015l.015.818.155.223c.088.122.264.275.389.346.212.117.3.127.947.142l.709.02v1.214c0 1.366.02 1.462.388 1.762.27.218.497.264 1.268.264s1-.046 1.268-.264c.378-.305.389-.37.389-1.96v-1.422l-.166-.244a1.317 1.317 0 0 0-.378-.36c-.186-.102-.28-.117-.916-.117h-.704l-.02-.7c-.016-.63-.027-.717-.146-.925a1.456 1.456 0 0 0-.352-.38l-.227-.153-.885-.015c-.777-.01-.916 0-1.098.08Zm5.477.035a1.095 1.095 0 0 0-.41.34c-.15.209-.15.214-.165 1.113-.021 1.02.02 1.163.377 1.457.27.218.497.264 1.268.264.772 0 1-.046 1.268-.264.358-.294.4-.437.378-1.457-.015-.9-.015-.904-.165-1.112a1.079 1.079 0 0 0-.41-.34c-.248-.123-.31-.128-1.07-.128-.761 0-.823.005-1.072.127Zm-5.477 6.465c-.258.117-.522.406-.595.655-.036.122-.052.503-.041 1.015l.015.818.155.223c.088.122.264.275.389.346.222.122.269.127 1.112.127.958 0 1.04-.02 1.341-.31.295-.294.316-.376.316-1.315 0-.828-.005-.874-.13-1.092a1.456 1.456 0 0 0-.352-.38l-.227-.153-.885-.015c-.777-.01-.916 0-1.098.08Zm5.477.035a1.095 1.095 0 0 0-.41.34c-.15.209-.15.214-.165 1.113-.021 1.02.02 1.163.377 1.457.27.218.497.264 1.268.264.772 0 1-.046 1.268-.264.358-.294.4-.437.378-1.457-.015-.9-.015-.904-.165-1.112a1.079 1.079 0 0 0-.41-.34c-.248-.122-.31-.128-1.07-.128-.761 0-.823.006-1.072.127Z"/></g><defs><clipPath id="a"><path fill="#fff" d="M0 0h24v24H0z"/></clipPath></defs></svg>
